flaticon/productivity/tablet-1.svg

<svg xmlns="http://www.w3.org/2000/svg" width="32" height="32" viewBox="0 0 24 24">
    <path d="M 5.324219 20.636719 L 9.449219 20.636719 L 9.449219 21.660156 L 5.324219 21.660156 Z M 5.324219 20.636719"/>
    <path d="M 21.714844 5.742188 C 20.453125 5.742188 19.429688 6.765625 19.429688 8.027344 C 19.429688 8.460938 19.550781 8.867188 19.757812 9.210938 L 17.46875 10.863281 C 17.183594 10.605469 16.839844 10.414062 16.453125 10.324219 L 16.453125 0 L 0 0 L 0 24 L 16.453125 24 L 16.453125 14.769531 C 17.457031 14.527344 18.207031 13.625 18.207031 12.546875 C 18.207031 12.25 18.148438 11.964844 18.046875 11.707031 L 20.476562 9.949219 C 20.835938 10.179688 21.257812 10.3125 21.714844 10.3125 C 22.976562 10.3125 24 9.289062 24 8.027344 C 24 6.765625 22.976562 5.742188 21.714844 5.742188 Z M 15.429688 1.019531 L 15.429688 10.3125 C 15.066406 10.390625 14.734375 10.558594 14.457031 10.789062 L 12.441406 7.902344 C 12.777344 7.503906 12.980469 6.988281 12.980469 6.429688 C 12.980469 5.167969 11.957031 4.144531 10.695312 4.144531 C 9.433594 4.144531 8.410156 5.167969 8.410156 6.429688 C 8.410156 6.730469 8.46875 7.019531 8.574219 7.28125 L 6.292969 9.863281 C 5.890625 9.515625 5.371094 9.308594 4.800781 9.308594 C 3.539062 9.308594 2.515625 10.332031 2.515625 11.59375 C 2.515625 12.855469 3.539062 13.878906 4.800781 13.878906 C 6.0625 13.878906 7.085938 12.855469 7.085938 11.59375 C 7.085938 11.277344 7.023438 10.980469 6.910156 10.707031 L 9.179688 8.136719 C 9.582031 8.496094 10.113281 8.714844 10.695312 8.714844 C 11.027344 8.714844 11.34375 8.644531 11.625 8.515625 L 13.816406 11.652344 C 13.699219 11.925781 13.632812 12.226562 13.632812 12.546875 C 13.632812 13.640625 14.402344 14.554688 15.429688 14.777344 L 15.429688 18.226562 L 1.019531 18.226562 L 1.019531 1.019531 Z M 9.429688 6.429688 C 9.429688 5.730469 9.996094 5.164062 10.695312 5.164062 C 11.394531 5.164062 11.957031 5.730469 11.957031 6.429688 C 11.957031 7.125 11.394531 7.691406 10.695312 7.691406 C 9.996094 7.691406 9.429688 7.125 9.429688 6.429688 Z M 6.066406 11.59375 C 6.066406 12.292969 5.5 12.859375 4.800781 12.859375 C 4.105469 12.859375 3.539062 12.292969 3.539062 11.59375 C 3.539062 10.894531 4.105469 10.328125 4.800781 10.328125 C 5.5 10.328125 6.066406 10.894531 6.066406 11.59375 Z M 1.019531 22.976562 L 1.019531 19.246094 L 15.429688 19.246094 L 15.429688 22.976562 Z M 15.917969 13.808594 C 15.222656 13.808594 14.65625 13.242188 14.65625 12.546875 C 14.65625 11.847656 15.222656 11.28125 15.917969 11.28125 C 16.617188 11.28125 17.183594 11.847656 17.183594 12.546875 C 17.183594 13.242188 16.617188 13.808594 15.917969 13.808594 Z M 21.714844 9.292969 C 21.015625 9.292969 20.449219 8.726562 20.449219 8.027344 C 20.449219 7.328125 21.015625 6.765625 21.714844 6.765625 C 22.414062 6.765625 22.980469 7.328125 22.980469 8.027344 C 22.980469 8.726562 22.414062 9.292969 21.714844 9.292969 Z M 21.714844 9.292969"/>
</svg>

<svg xmlns="http://www.w3.org/2000/svg" width="32" height="32" viewBox="0 0 24 24">
    <path d="M5.324 20.637H9.45v1.023H5.324zm0 0"/>
    <path d="M21.715 5.742a2.286 2.286 0 0 0-1.957 3.469l-2.29 1.652a2.285 2.285 0 0 0-1.015-.539V0H0v24h16.453v-9.23a2.29 2.29 0 0 0 1.594-3.063l2.43-1.758a2.286 2.286 0 1 0 1.238-4.207zM15.43 1.02v9.292a2.272 2.272 0 0 0-.973.477l-2.016-2.887a2.286 2.286 0 1 0-3.867-.621L6.293 9.863a2.286 2.286 0 1 0 .617.844l2.27-2.57a2.268 2.268 0 0 0 2.445.379l2.191 3.136a2.283 2.283 0 0 0 1.613 3.125v3.45H1.02V1.02zm-6 5.41c0-.7.566-1.266 1.265-1.266.7 0 1.262.566 1.262 1.266a1.264 1.264 0 0 1-2.527 0zm-3.364 5.164a1.264 1.264 0 0 1-2.527 0 1.264 1.264 0 1 1 2.527 0zM1.02 22.977v-3.73h14.41v3.73zm14.898-9.168a1.264 1.264 0 1 1 .004-2.528 1.264 1.264 0 0 1-.004 2.528zm5.797-4.516c-.7 0-1.266-.566-1.266-1.266 0-.699.567-1.261 1.266-1.261.7 0 1.265.562 1.265 1.261 0 .7-.566 1.266-1.265 1.266zm0 0"/>
</svg>
